X: 1004
T:Untitled
S:CD, Manran by Manran
Z:https://nigelgatherer.com/
M:4/4
L:1/8
K:Amix
g | fA A/A/A e2 de | fA A/A/A dBBg | fA A/A/A e2 de | fedB BAA :|
g | fdaf e2 de | fdfg dBBg | fdaf e2 de | fedB BAA
g | fdaf e2 de | fdfg dBBg | fgaf geaf | gedB BAA |]

